X: 32
M: none
L: 1/8
K: F
agfd (fd) (cA) | (cA) (GF) G2 FD | F2 f2 cA GA | F4 D4 ||
f3 g a2 a2 | ac' g2 g2 fd | f3 g a2 ag | f4 d2 G>A |\
defd fgaf | gfga g2 de | fc fg fgag | f4 d2 f>g |\
ag fd cA ag | fd cA G2 FD | F2 f2 cA GA | F4 D4 |]


